X:1
T:More Than Tongue Can Tell
T:More Than Tongue Can Tell
T:Jane E. Hall
T:Jane E. Hall, 1879
T:Public Domain Courtesy of the Cyber Hymnal™
C:Jane E. Hall
Z:Public Domain
Z:Courtesy of the Cyber Hymnal™
%%score ( 1 2 ) ( 3 4 )
L:1/8
Q:1/4=100
M:4/4
K:G
V:1 treble 
V:2 treble 
V:3 bass 
V:4 bass 
V:1
 D2 | [DG]3 [DA] [DB]D [CE]>[Ec] | [DB]6 [GB]2 | [Gd]3 [Ge] [Gd]G[GB][EA] | [FA]6 D2 | %5
w: 1.~The|love that Je- sus had for|me, To|suf- fer on the cru- el|tree, That|
w: 2.~The|ma- ny sor- rows that He|bore, And|oh, that crown of thorns He|wore, That|
w: 3.~The|peace I have in Him, my|Lord, Who|pleads be- fore the throne of|God, The|
w: 4.~The|joy that comes when He is|near, The|rest He gives, so free from|fear, The|
 [DG]3 [DA] [DB]D [DG]>[FA] | ([GB]2 [Fc]2 [Gd]2) [Ge]2 | [Gd]3 [Fc] [GB]2 [DA]2 | [DG]6 || %9
w: I a ran- somed soul might|be, * * Is|more than tongue can|tell.|
w: I might live for- ev- er-|more, * * Is|more than tongue can|tell.|
w: mer- it of His pre- cious|blood, * * Is|more than tongue can|tell.|
w: hope in Him so bright and|clear, * * Is|more than tongue can|tell.|
"^Refrain" [DG]2 | [GB]3 [Gc] [GB][FA] [EG]>[^DF] | E6 [CE]2 | [DG]3 [DA] [GB][Gc] [Gd]>[DB] | %13
w: ||||
w: His|love is more than tongue can|tell; His|love is more than tongue can|
w: ||||
w: ||||
 A6 D2 | [DG]3 [DA] [DB]D [DG]>[FA] | ([GB]2 [Fc]2 [Gd]2) [Ge]2 | [Gd]3 [Fc] [GB]2 [DA]2 | [DG]6 |] %18
w: |||||
w: tell; The|love that Je- sus had for|me, * * Is|more than tongue can|tell.|
w: |||||
w: |||||
V:2
 D2 | x5 D x2 | x8 | x5 G x2 | x6 D2 | x5 D x2 | x8 | x8 | x6 || x2 | x8 | (E>CC>C C2) x2 | x8 | %13
 (D>DD>D D2) D2 | x5 D x2 | x8 | x8 | x6 |] %18
V:3
 [G,B,]2 | [G,B,]3 [G,C] [G,D][G,B,] [C,C]>[C,G,] | G,6 G,2 | %3
w: ~|~ ~ ~ ~ ~ ~|~ ~|
 [G,B,]3 [G,C] [G,B,][G,B,][A,^C][A,C] | [D,D]6 [F,C]2 | [G,B,]3 [D,C] [G,,D][G,,B,] [B,,D]>[D,D] | %6
w: ~ ~ ~ ~ ~ ~|~ ~|~ ~ ~ ~ ~ ~|
 ([G,,D]2 [A,,C]2 [B,,B,]2) [C,G,]2 | [D,B,]3 [D,A,] [D,D]2 [D,C]2 | [G,,B,]6 || [G,B,]2 | %10
w: ~ * * ~|~ ~ ~ ~|~|~|
 [G,D]3 [G,E] [G,D][D,C] [E,B,]>[B,,A,] | [C,G,]>[C,G,][C,G,]>[C,G,] [C,G,]2 [C,G,]2 | %12
w: ~ ~ ~ ~ ~ ~|than tongue can tell; ~ ~|
 [G,,B,]3 [G,,C] [G,,D][G,,A,] [G,,B,]>[B,,G,] | [D,F,]>[D,F,][D,F,]>[D,F,] [D,F,]2 [F,C]2 | %14
w: ~ ~ ~ ~ ~ ~|than tongue can tell; * *|
 [G,B,]3 [D,C] [G,,D][G,,B,] [B,,D]>[D,D] | ([G,,D]2 [A,,C]2 [B,,B,]2) [C,G,]2 | %16
w: ||
 [D,B,]3 [D,A,] [D,D]2 [D,C]2 | [G,,B,]6 |] %18
w: ||
V:4
 x2 | x8 | G,6 G,2 | x8 | x8 | x8 | x8 | x8 | x6 || x2 | x8 | x8 | x8 | x8 | x8 | x8 | x8 | x6 |] %18

